Simply-Blue-Circles/scalable/apps/androidstudio.svg

<svg xmlns="http://www.w3.org/2000/svg" width="48" height="48" viewBox="0 0 12.7 12.7"><path d="M6.34.07a6.29 6.29 0 0 0-6.29 6.3 6.29 6.29 0 0 0 1.93 4.52l.43-.75A5.4 5.4 0 0 1 .92 6.42 5.4 5.4 0 0 1 6.32 1l.01.01a5.4 5.4 0 0 1 5.4 5.4 5.4 5.4 0 0 1-1.69 3.93l.44.75a6.29 6.29 0 0 0 2.15-4.73A6.29 6.29 0 0 0 6.34.07zm-.79 2.58v.95H5.2a.6.6 0 0 0-.6.59v1.55h.01c0 .05.03.11.1.18l.28.24-2.86 4.95-.06 1.06.89-.59 1.56-2.7c.56.28 1.2.43 1.87.43.51 0 1.08-.09 1.58-.26l1.47 2.53.88.6-.06-1.07-1.43-2.48a4.17 4.17 0 0 0 1.82-3.44h-.96c0 1.27-.38 1.57-.84 2.1-.15.18-.33.34-.52.48l-.92-1.6.28-.25c.06-.07.09-.13.09-.18V4.2a.6.6 0 0 0-.6-.6h-.35v-.94H5.55zm.64 1.58v.01c.35 0 .63.28.63.63s-.28.63-.63.63a.63.63 0 0 1-.64-.63c0-.35.29-.63.64-.63zM5.7 6.81l.18.16c.08.08.2.12.3.12a.4.4 0 0 0 .3-.12l.18-.16.8 1.38a4 4 0 0 1-1.1.17c-.49 0-.96-.13-1.37-.34l.7-1.21zm-2.16 4.24l-.42.71a6.29 6.29 0 0 0 3.22.89 6.29 6.29 0 0 0 3.01-.77l-.42-.74a5.4 5.4 0 0 1-2.61.68 5.4 5.4 0 0 1-2.78-.77z" fill="#2c89a0"/></svg>

<?xml version="1.0" encoding="UTF-8" standalone="no"?>
<svg
   xmlns:dc="http://purl.org/dc/elements/1.1/"
   xmlns:cc="http://creativecommons.org/ns#"
   xmlns:rdf="http://www.w3.org/1999/02/22-rdf-syntax-ns#"
   xmlns:svg="http://www.w3.org/2000/svg"
   xmlns="http://www.w3.org/2000/svg"
   xmlns:sodipodi="http://sodipodi.sourceforge.net/DTD/sodipodi-0.dtd"
   xmlns:inkscape="http://www.inkscape.org/namespaces/inkscape"
   width="48"
   height="48"
   viewBox="0 0 12.7 12.7"
   version="1.1"
   id="svg4"
   sodipodi:docname="androidstudio.svg"
   inkscape:version="0.92.4 (5da689c313, 2019-01-14)">
  <metadata
     id="metadata10">
    <rdf:RDF>
      <cc:Work
         rdf:about="">
        <dc:format>image/svg+xml</dc:format>
        <dc:type
           rdf:resource="http://purl.org/dc/dcmitype/StillImage" />
        <dc:title></dc:title>
      </cc:Work>
    </rdf:RDF>
  </metadata>
  <defs
     id="defs8" />
  <sodipodi:namedview
     pagecolor="#ffffff"
     bordercolor="#666666"
     borderopacity="1"
     objecttolerance="10"
     gridtolerance="10"
     guidetolerance="10"
     inkscape:pageopacity="0"
     inkscape:pageshadow="2"
     inkscape:window-width="1087"
     inkscape:window-height="480"
     id="namedview6"
     showgrid="false"
     inkscape:zoom="4.9166667"
     inkscape:cx="2.1355932"
     inkscape:cy="24"
     inkscape:window-x="0"
     inkscape:window-y="25"
     inkscape:window-maximized="0"
     inkscape:current-layer="svg4" />
  <path
     d="m 6.34,0.07 a 6.29,6.29 0 0 0 -6.29,6.3 6.29,6.29 0 0 0 1.93,4.52 L 2.41,10.14 A 5.4,5.4 0 0 1 0.92,6.42 5.4,5.4 0 0 1 6.32,1 l 0.01,0.01 a 5.4,5.4 0 0 1 5.4,5.4 5.4,5.4 0 0 1 -1.69,3.93 l 0.44,0.75 A 6.29,6.29 0 0 0 12.63,6.36 6.29,6.29 0 0 0 6.34,0.07 Z M 5.55,2.65 V 3.6 H 5.2 A 0.6,0.6 0 0 0 4.6,4.19 v 1.55 h 0.01 c 0,0.05 0.03,0.11 0.1,0.18 l 0.28,0.24 -2.86,4.95 -0.06,1.06 0.89,-0.59 1.56,-2.7 c 0.56,0.28 1.2,0.43 1.87,0.43 0.51,0 1.08,-0.09 1.58,-0.26 l 1.47,2.53 0.88,0.6 L 10.26,11.11 8.83,8.63 A 4.17,4.17 0 0 0 10.65,5.19 H 9.69 C 9.69,6.46 9.31,6.76 8.85,7.29 8.7,7.47 8.52,7.63 8.33,7.77 L 7.41,6.17 7.69,5.92 C 7.75,5.85 7.78,5.79 7.78,5.74 V 4.2 A 0.6,0.6 0 0 0 7.18,3.6 H 6.83 V 2.66 H 5.55 Z m 0.64,1.58 v 0.01 c 0.35,0 0.63,0.28 0.63,0.63 0,0.35 -0.28,0.63 -0.63,0.63 A 0.63,0.63 0 0 1 5.55,4.87 C 5.55,4.52 5.84,4.24 6.19,4.24 Z M 5.7,6.81 5.88,6.97 c 0.08,0.08 0.2,0.12 0.3,0.12 A 0.4,0.4 0 0 0 6.48,6.97 L 6.66,6.81 7.46,8.19 A 4,4 0 0 1 6.36,8.36 C 5.87,8.36 5.4,8.23 4.99,8.02 l 0.7,-1.21 z m -2.16,4.24 -0.42,0.71 a 6.29,6.29 0 0 0 3.22,0.89 6.29,6.29 0 0 0 3.01,-0.77 L 8.93,11.14 A 5.4,5.4 0 0 1 6.32,11.82 5.4,5.4 0 0 1 3.54,11.05 Z"
     id="path2"
     inkscape:connector-curvature="0"
     style="fill:#2c89a0" />
</svg>
